app/assets/images/compare/snap.svg

<svg xmlns="http://www.w3.org/2000/svg" width="277" height="87" viewBox="0 0 277 87">
  <g fill="none" fill-rule="evenodd" transform="translate(.5 5.5)">
    <circle cx="31" cy="46" r="18.5" fill="#FFFFFF"/>
    <path fill="#2047DB" d="M90.6641422 49.3748293C91.4936279 50.2954673 92.5145334 51.0570445 93.7254913 51.6627514 94.9364493 52.268914 96.2704628 52.5715396 97.7288992 52.5715396 99.545564 52.5715396 100.879578 52.1476815 101.732307 51.3004211 102.584125 50.4531607 103.010718 49.4641586 103.010718 48.3334146 103.010718 47.4246264 102.758226 46.6812796 102.253698 46.1042857 101.74917 45.5268361 101.1266 45.0788226 100.386444 44.7593338 99.6462873 44.4398452 98.6253818 44.082984 97.3250946 43.6901178 95.6652117 43.280844 94.3362116 42.8829643 93.3385499 42.4951114 92.3404325 42.1072585 91.4881587 41.5206936 90.7821844 40.7354167 90.0757543 39.9501399 89.7225392 38.9005215 89.7225392 37.5870172 89.7225392 36.4248257 90.0588911 35.3916147 90.7315949 34.4873841 91.4042987 33.5831535 92.3235693 32.8780907 93.4903185 32.3721956 94.656156 31.8667562 95.968293 31.6133529 97.4262737 31.6133529 100.767916 31.6133529 103.425461 32.5886822 105.399363 34.5397967L103.717148 36.5916344C102.909995 35.6951517 101.945148 35.0219922 100.823975 34.5730672 99.7023459 34.1250538 98.502782 33.9003635 97.2243714 33.9003635 95.878508 33.9003635 94.7741982 34.2421845 93.9105304 34.924915 93.0468626 35.6085571 92.6152566 36.4941014 92.6152566 37.5820038 92.6152566 38.3002837 92.8558986 38.8959638 93.3385499 39.3708672 93.8207455 39.8457706 94.4095891 40.2158488 95.1046252 40.4820134 95.7992056 40.7486338 96.7863847 41.0553612 98.0647953 41.4026514 99.7242225 41.8524879 101.075555 42.2963995 102.118793 42.7343861 103.161575 43.1728286 104.053044 43.8364171 104.793201 44.724696 105.533357 45.612975 105.903435 46.7870162 105.903435 48.2486429 105.903435 49.4172151 105.622686 50.5023829 105.062555 51.5032349 104.501969 52.5036311 103.599106 53.3130633 102.354421 53.9315315 101.109737 54.5490881 99.53417 54.8590058 97.6277202 54.8590058 95.765935 54.8590058 94.1124327 54.564584 92.6658461 53.9775634 91.2192595 53.390087 90.0023767 52.5624243 89.0156533 51.4941197L90.6641422 49.3748293zM120.940826 43.6914851C120.940826 42.3114396 120.626806 41.3320084 119.998767 40.7545587 119.370728 40.1775648 118.473334 39.8886121 117.307496 39.8886121 116.365437 39.8886121 115.451636 40.1374578 114.565636 40.635605 113.679636 41.1337522 112.989613 41.7339899 112.496479 42.4354067L112.496479 54.4214749 109.973384 54.4214749 109.973384 38.1726706 112.496479 38.1726706 112.496479 40.5275896C113.124063 39.7874331 113.964942 39.1429865 115.019574 38.5933383 116.073294 38.0441458 117.160741 37.768866 118.282826 37.768866 121.736129 37.768866 123.463465 39.5180781 123.463465 43.0169582L123.463465 54.4205634 120.94037 54.4205634 120.94037 43.6914851 120.940826 43.6914851zM138.669032 52.5715396C137.300836 54.0965171 135.506959 54.8594616 133.286946 54.8594616 132.322099 54.8594616 131.407842 54.6511787 130.545085 54.2355243 129.680962 53.8189584 128.974532 53.2004903 128.425339 52.379664 127.875691 51.5579263 127.600867 50.5848757 127.600867 49.4600567 127.600867 48.3124496 127.875691 47.3343856 128.425339 46.5244977 128.974532 45.7146097 129.680962 45.1070798 130.545085 44.7023637 131.407842 44.2971919 132.321643 44.094378 133.286946 44.094378 135.595833 44.094378 137.390621 44.8345345 138.669032 46.3143917L138.669032 43.3533101C138.669032 42.2248449 138.288015 41.3429467 137.525071 40.7076153 136.763038 40.0727397 135.775859 39.7546183 134.565356 39.7546183 133.578177 39.7546183 132.680783 39.9396574 131.87363 40.3097356 131.066476 40.6798139 130.304443 41.2463252 129.586163 42.008814L128.408476 40.2596019C129.283538 39.3945668 130.253398 38.7628815 131.318968 38.3654576 132.383627 37.9684895 133.578177 37.7697775 134.901708 37.7697775 136.763038 37.7697775 138.276165 38.2187024 139.442459 39.1156408 140.608752 40.013035 141.192583 41.3921689 141.192583 43.2530426L141.192583 54.4219307 138.669032 54.4219307 138.669032 52.5715396zM138.669032 48.0111913C138.19823 47.3881655 137.564266 46.9109833 136.768507 46.5778218 135.971836 46.245116 135.114549 46.0783073 134.195278 46.0783073 133.028985 46.0783073 132.070519 46.3950614 131.318968 47.0281141 130.566962 47.6620781 130.19187 48.4824485 130.19187 49.49196 130.19187 50.4800506 130.566506 51.2899386 131.318968 51.9239026 132.070063 52.5569552 133.028985 52.8737094 134.195278 52.8737094 135.115005 52.8737094 135.971836 52.7073565 136.768507 52.3741949 137.564266 52.0419449 138.19823 51.5643069 138.669032 50.9408253L138.669032 48.0111913zM146.238317 60.6111701L146.238317 38.1726706 148.761412 38.1726706 148.761412 40.5945865C149.366663 39.7423127 150.151484 39.0586707 151.115875 38.5427488 152.07981 38.0272827 153.122592 37.768866 154.244677 37.768866 155.657537 37.768866 156.913159 38.1115985 158.012456 38.7970636 159.110841 39.4825287 159.96357 40.4710751 160.568821 41.7631586 161.174528 43.0552421 161.477154 44.5660911 161.477154 46.2961612 161.477154 48.0266872 161.174528 49.5379919 160.568821 50.8305311 159.96357 52.1221588 159.110841 53.1166302 158.012456 53.8134893 156.913615 54.509437 155.657537 54.8585502 154.244677 54.8585502 153.14538 54.8585502 152.119461 54.6110717 151.166464 54.1179378 150.212556 53.6248041 149.410871 52.9188297 148.761412 51.9986476L148.761412 60.6107144 146.238317 60.6107144 146.238317 60.6111701zM157.407205 41.6802101C156.465146 40.4861153 155.197674 39.8886121 153.605699 39.8886121 152.640852 39.8886121 151.704718 40.1470288 150.796386 40.6638622 149.888509 41.1806956 149.209881 41.806456 148.761412 42.5415991L148.761412 50.0520907C149.209425 50.8104777 149.888509 51.447632 150.796386 51.9640096 151.704718 52.4812988 152.640852 52.7392598 153.605699 52.7392598 155.197674 52.7392598 156.46469 52.1358316 157.407205 50.9303429 158.348808 49.7243983 158.820065 48.179823 158.820065 46.2961612 158.820065 44.4138668 158.348808 42.8747606 157.407205 41.6802101zM183.612572 54.4210192L180.147418 54.4210192C179.474259 53.8157681 178.655711 53.0304912 177.69132 52.066556 175.807659 53.9278855 173.642792 54.8590058 171.199 54.8590058 169.180432 54.8590058 167.51508 54.3134596 166.203399 53.2219111 164.891262 52.1312741 164.235422 50.5853315 164.235422 48.5831718 164.235422 46.986184 164.672953 45.6822506 165.547559 44.6690931 166.422165 43.6577587 167.633123 42.7239036 169.180888 41.8684395 168.036927 39.9123117 167.464947 38.2364771 167.464947 36.8418473 167.464947 35.8528452 167.711514 34.9586414 168.205103 34.1596917 168.698237 33.3611978 169.37641 32.7372604 170.240533 32.287424 171.103745 31.8375875 172.062212 31.6128971 173.116843 31.6128971 174.597156 31.6128971 175.813583 32.0057634 176.767036 32.7924076 177.720033 33.5785959 178.19676 34.6560158 178.19676 36.0260345 178.19676 37.0820336 177.938799 37.9862642 177.423333 38.7382704 176.906955 39.4907324 176.273903 40.1137582 175.522352 40.6078036 174.770801 41.1018489 173.756277 41.686135 172.477866 42.360206 173.060785 43.1915148 173.924453 44.2579964 175.068414 45.5601067L177.725958 48.5590164C178.73547 47.0094278 179.542623 45.3021457 180.147874 43.4380817L182.300891 44.3815077C181.269047 46.8517344 180.259991 48.7832511 179.273268 50.1756021 180.259991 51.2325127 181.706122 52.647196 183.612572 54.4210192zM176.178193 50.4882543C174.540642 48.8493365 173.49786 47.7600668 173.049847 47.2222684 171.928218 45.8991931 171.008491 44.7105674 170.291123 43.6563914 169.236947 44.3072186 168.4184 45.0077239 167.835025 45.7588185 167.25165 46.5099133 166.960419 47.4241706 166.960419 48.500679 166.960419 49.763138 167.403419 50.7571536 168.289419 51.4827257 169.174963 52.2082978 170.235064 52.5715396 171.468355 52.5715396 173.127782 52.5715396 174.698335 51.8769593 176.178193 50.4882543zM171.400902 40.6957655C172.881215 39.955609 173.99145 39.2551038 174.731606 38.5933383 175.471763 37.9320285 175.841841 37.1221406 175.841841 36.1632187 175.841841 35.4394696 175.594818 34.8811619 175.10214 34.4892072 174.60855 34.0972524 173.980056 33.9003635 173.218023 33.9003635 172.320628 33.9003635 171.569534 34.1774664 170.964282 34.7303049 170.358576 35.2831435 170.055949 35.9822814 170.055949 36.827263 170.055494 37.8367744 170.503508 39.1265791 171.400902 40.6957655zM195.119603 46.3824378L191.620723 46.3824378 191.620723 54.4225242 186.844344 54.4225242 186.844344 31.9840246 197.340072 31.9840246C198.86505 31.9840246 200.199063 32.292575 201.343024 32.9092202 202.486985 33.526321 203.361591 34.384064 203.967298 35.4824489 204.572549 36.5817453 204.875175 37.8264296 204.875175 39.2165018 204.875175 41.0559547 204.398449 42.5472059 203.445451 43.6911669 202.491999 44.8346722 201.331174 45.5634347 199.963435 45.8774542L205.009624 54.4220685 199.526359 54.4220685 195.119603 46.3824378zM199.03915 36.7517443C198.400173 36.1305415 197.597577 35.8192565 196.633642 35.8192565L191.621178 35.8192565 191.621178 42.5476616 196.633642 42.5476616C197.597577 42.5476616 198.400173 42.2368324 199.03915 41.6147181 199.678128 40.9935154 199.998072 40.1831717 199.998072 39.1832312 199.997617 38.1837465 199.678128 37.3734028 199.03915 36.7517443zM207.431996 42.0002922C208.149365 40.7086645 209.147938 39.6809226 210.425893 38.9166108 211.704303 38.152299 213.15089 37.7699152 214.765652 37.7699152 216.357627 37.7699152 217.770487 38.1459183 219.004233 38.8970131 220.237523 39.6485636 221.196445 40.7027396 221.880999 42.0595412 222.564641 43.4167986 222.906918 44.9695776 222.906918 46.7187897L222.906918 47.6603927 210.829697 47.6603927C210.964603 48.8326109 211.446798 49.8102191 212.276284 50.5918499 213.105769 51.3743921 214.182734 51.7649796 215.505809 51.7649796 216.291086 51.7649796 217.081376 51.619136 217.877591 51.326993 218.67335 51.0357614 219.329647 50.6433509 219.845569 50.150217L221.72923 52.8063943C220.922077 53.4809212 219.929885 53.9922854 218.752197 54.3382084 217.574965 54.6854985 216.335295 54.8600551 215.035007 54.8600551 213.397457 54.8600551 211.9176 54.5059286 210.594524 53.7981311 209.270993 53.0903337 208.23368 52.0899375 207.483041 50.7983098 206.731491 49.5057704 206.355943 48.0067714 206.355943 46.2976661 206.355488 44.7257452 206.714172 43.2923757 207.431996 42.0002922zM211.939932 41.989354C211.266772 42.7390814 210.883021 43.5972801 210.787767 44.5653172L218.76906 44.5653172C218.702063 43.6205239 218.336999 42.7673386 217.676145 42.0062171 217.014379 41.2460072 216.044519 40.8654464 214.766108 40.8654464 213.554694 40.8654464 212.612636 41.2400823 211.939932 41.989354zM235.75711 52.7407647C235.196523 53.391592 234.461836 53.9070581 233.553503 54.2880745 232.645627 54.6690911 231.663917 54.8605109 230.610196 54.8605109 229.690014 54.8605109 228.798545 54.657697 227.935789 54.2534367 227.071665 53.8482648 226.359766 53.2352657 225.799179 52.413528 225.238593 51.5927019 224.9583 50.6082573 224.9583 49.4601943 224.9583 48.2683784 225.238137 47.2848453 225.799179 46.5073165 226.35931 45.7320663 227.06574 45.1641876 227.91847 44.8036804 228.770288 44.4440847 229.667682 44.2631474 230.609741 44.2631474 231.708126 44.2631474 232.706699 44.4313234 233.603637 44.7676753 234.50012 45.1040271 235.2184 45.5976167 235.756654 46.2479882L235.756654 43.9577873C235.756654 43.0166401 235.43124 42.2655454 234.780869 41.7058704 234.130042 41.1457397 233.267285 40.8659022 232.190321 40.8659022 230.418321 40.8659022 228.837741 41.5048796 227.447213 42.7832903L225.83245 40.0327704C226.796385 39.2789411 227.889757 38.7133412 229.112109 38.3364266 230.334461 37.9595119 231.606947 37.7708267 232.930478 37.7708267 235.016042 37.7708267 236.720133 38.253478 238.04412 39.2174133 239.36674 40.1822601 240.028505 41.7523581 240.028505 43.9267955L240.028505 54.4225242 235.756198 54.4225242 235.756198 52.7407647 235.75711 52.7407647zM235.75711 48.6434699C235.420758 48.2355635 234.944031 47.9197209 234.327386 47.6945748 233.710285 47.4703402 233.043506 47.3582229 232.325227 47.3582229 231.45062 47.3582229 230.721402 47.5628597 230.138939 47.9707662 229.555565 48.3786726 229.263877 48.9196614 229.263877 49.5928209 229.263877 50.266892 229.555565 50.7964867 230.138939 51.1843397 230.721402 51.5717368 231.45062 51.7654354 232.325227 51.7654354 233.043051 51.7654354 233.70983 51.6533181 234.327386 51.4290835 234.944031 51.2048489 235.420302 50.887639 235.75711 50.4801884L235.75711 48.6434699zM255.437341 52.3702307C254.786058 53.1555076 254.029495 53.765772 253.166738 54.2037587 252.302615 54.6408339 251.389269 54.8595994 250.424878 54.8595994 249.056226 54.8595994 247.822936 54.5214243 246.724095 53.8473534 245.625255 53.1732823 244.767512 52.1961299 244.150867 50.9149846 243.533766 49.6347509 243.226127 48.106583 243.226127 46.330481 243.226127 44.6004109 243.534222 43.0895619 244.150867 41.7970227 244.767968 40.5053949 245.619786 39.5113794 246.707688 38.8145203 247.795135 38.1181169 249.033894 37.7694594 250.424878 37.7694594 251.388813 37.7694594 252.30854 37.9827557 253.183146 38.4084369 254.058208 38.8350295 254.808847 39.4516746 255.437341 40.258828L255.437341 31.9840246 259.742919 31.9840246 259.742919 54.4220685 255.437341 54.4220685 255.437341 52.3702307zM255.437341 43.1005002C255.055413 42.4993509 254.523084 42.0043941 253.838986 41.6160854 253.154888 41.227321 252.453927 41.0331666 251.736559 41.0331666 250.525601 41.0331666 249.538422 41.5217428 248.776389 42.4993509 248.013444 43.4769591 247.632428 44.7549139 247.632428 46.3341272 247.632428 47.8873618 248.013444 49.153467 248.776389 50.1306194 249.538422 51.1082275 250.525601 51.5968037 251.736559 51.5968037 252.453927 51.5968037 253.154888 51.4026494 253.838986 51.0138849 254.523084 50.6255761 255.055413 50.1306194 255.437341 49.5290143L255.437341 43.1005002zM265.428586 39.3846189L264.486984 39.3846189 264.486984 33.0600183 262.401419 33.0600183 262.401419 31.9835101 267.515062 31.9835101 267.515062 33.0600183 265.429043 33.0600183 265.429043 39.3846189 265.428586 39.3846189zM274.982712 33.2619207L272.459617 39.3846189 272.190717 39.3846189 269.667623 33.2619207 269.667623 39.3846189 268.72602 39.3846189 268.72602 31.9835101 270.172607 31.9835101 272.325623 37.3660518 274.47864 31.9835101 275.925682 31.9835101 275.925682 39.3846189 274.983623 39.3846189 274.983623 33.2619207 274.982712 33.2619207zM30.4248062 41.3685482C32.5864823 41.3685482 34.3393405 43.125964 34.3393405 45.2931093 34.3393405 47.4607104 32.5860266 49.218582 30.4248062 49.218582 28.2626741 49.218582 26.5093602 47.4607104 26.5093602 45.2931093 26.5093602 43.125964 28.2626741 41.3685482 30.4248062 41.3685482L30.4248062 41.3685482zM69.7633931 33.7878693C65.531193 20.4313265 54.5350385 9.83669768 41.063188 6.13819415L42.7276285.0556028874C58.233542 4.3124141 70.8909468 16.5076769 75.7580225 31.8786848L69.7606585 33.7878693 69.7633931 33.7878693z"/>
    <path fill="#2047DB" d="M59.4759475,36.504207 C56.441944,26.6994127 48.4091498,18.9655979 38.515482,16.322182 L40.1366252,10.2236391 C52.1017284,13.4157918 61.8149149,22.7693823 65.4842497,34.6310279 L59.4759475,36.4941803 L59.4759475,36.504207 Z"/>
    <path fill="#2047DB" d="M60.1965061,40.1639708 L60.1924043,40.159869 L56.2600953,41.1520616 C54.4839931,30.050626 45.7146887,21.2567103 34.6346739,19.4432359 L35.6159281,15.5305245 C33.939182,15.2447621 32.16308,15.0957282 30.3992835,15.0957282 C28.6605539,15.0957282 26.9464353,15.2447621 25.281539,15.5305245 L25.281539,15.5428301 L26.2632491,19.4555414 C15.1444946,21.2430375 6.36106146,30.037409 4.56217133,41.1506942 L0.687288149,40.1803783 C0.392410541,41.8676069 0.239730481,43.6432531 0.239730481,45.4106958 C0.239730481,47.1621867 0.388764449,48.8763053 0.674071068,50.5530513 L0.679540205,50.5580646 L4.56490589,49.5813681 C6.36607484,60.6987552 15.1481407,69.4926709 26.2459301,71.2806227 L25.2646759,75.1937899 C26.941422,75.4841099 28.717524,75.6372457 30.4813205,75.6372457 C32.2328115,75.6372457 33.9432838,75.4882117 35.6113705,75.2019936 L35.6113705,75.1988032 L34.6301163,71.2737863 C45.7096752,69.4480063 54.4762453,60.6613828 56.2678432,49.556757 L60.1978734,50.5421131 C60.4959414,48.8526057 60.6449754,47.0760479 60.6449754,45.3122513 C60.6449754,43.5612161 60.4954857,41.8466419 60.2097233,40.1730861 L60.1965061,40.1639708 Z M32.3832128,62.2756896 L30.4293637,54.4552802 L28.4741474,62.2802472 C20.6491805,61.3937913 14.4134534,55.1571528 13.506944,47.3130437 L21.3446723,45.3473449 L13.506944,43.3725309 C14.4134534,35.5261431 20.6491805,29.290416 28.486453,28.3962123 L30.4494172,36.2343964 L32.4119257,28.3962123 C40.2250429,29.3031774 46.4352473,35.5389045 47.3294511,43.3725309 L39.5414009,45.3227338 L47.3294511,47.2720252 C46.422486,55.1097535 40.2118258,61.3454807 32.3991644,62.25199 L32.3832128,62.2756896 Z"/>
  </g>
</svg>

<svg xmlns="http://www.w3.org/2000/svg" width="277" height="87"><g fill="none" fill-rule="evenodd" transform="translate(.5 5.5)"><circle cx="31" cy="46" r="18.5" fill="#FFF"/><path fill="#2047DB" d="M90.664 49.375c.83.92 1.85 1.682 3.061 2.288 1.211.606 2.545.909 4.004.909 1.817 0 3.15-.424 4.003-1.272.852-.847 1.279-1.836 1.279-2.967 0-.908-.253-1.652-.757-2.229a5.15 5.15 0 00-1.868-1.345c-.74-.32-1.76-.676-3.06-1.069-1.66-.41-2.99-.807-3.987-1.195a6.604 6.604 0 01-2.557-1.76c-.706-.785-1.06-1.834-1.06-3.148 0-1.162.337-2.195 1.01-3.1.672-.904 1.592-1.609 2.758-2.115 1.166-.505 2.478-.759 3.936-.759 3.342 0 6 .976 7.973 2.927l-1.682 2.052a7.69 7.69 0 00-2.893-2.019 9.613 9.613 0 00-3.6-.673c-1.345 0-2.45.342-3.313 1.025-.864.684-1.296 1.57-1.296 2.657 0 .718.24 1.314.724 1.789a5.055 5.055 0 001.766 1.111c.694.267 1.681.573 2.96.92 1.66.45 3.01.894 4.054 1.332a6.942 6.942 0 012.674 1.99c.74.889 1.11 2.063 1.11 3.525 0 1.168-.28 2.253-.84 3.254-.561 1-1.464 1.81-2.709 2.429-1.244.617-2.82.927-4.726.927-1.862 0-3.516-.294-4.962-.881-1.447-.588-2.664-1.416-3.65-2.484l1.648-2.12zm30.277-5.684c0-1.38-.314-2.359-.942-2.936-.628-.577-1.526-.866-2.692-.866-.942 0-1.855.248-2.741.747-.886.498-1.576 1.098-2.07 1.8V54.42h-2.523V38.173h2.523v2.355c.628-.74 1.469-1.385 2.524-1.935 1.053-.549 2.14-.824 3.263-.824 3.453 0 5.18 1.75 5.18 5.248v11.404h-2.523V43.69zm17.728 8.88c-1.368 1.526-3.162 2.288-5.382 2.288a6.24 6.24 0 01-2.742-.623 5.267 5.267 0 01-2.12-1.856c-.55-.822-.824-1.795-.824-2.92 0-1.148.275-2.126.824-2.936a5.177 5.177 0 012.12-1.822 6.372 6.372 0 012.742-.608c2.309 0 4.104.74 5.382 2.22v-2.96c0-1.13-.381-2.011-1.144-2.646-.762-.635-1.75-.953-2.96-.953-.987 0-1.884.185-2.691.555-.808.37-1.57.936-2.288 1.699l-1.178-1.75c.876-.864 1.845-1.496 2.911-1.894 1.065-.397 2.26-.595 3.583-.595 1.861 0 3.374.449 4.54 1.346 1.167.897 1.75 2.276 1.75 4.137v11.169h-2.523v-1.85zm0-4.56c-.47-.623-1.105-1.1-1.9-1.433a6.608 6.608 0 00-2.574-.5c-1.166 0-2.124.317-2.876.95-.752.634-1.127 1.454-1.127 2.464 0 .988.375 1.798 1.127 2.432.751.633 1.71.95 2.876.95.92 0 1.777-.167 2.574-.5.795-.332 1.43-.81 1.9-1.433v-2.93zm7.57 12.6V38.173h2.522v2.422a6.732 6.732 0 012.355-2.052 6.533 6.533 0 013.129-.774c1.413 0 2.668.343 3.767 1.028 1.099.686 1.952 1.674 2.557 2.966.606 1.292.908 2.803.908 4.533 0 1.73-.302 3.242-.908 4.535-.605 1.291-1.458 2.286-2.557 2.982-1.098.696-2.354 1.046-3.767 1.046a6.6 6.6 0 01-3.079-.741 6.663 6.663 0 01-2.405-2.12v8.613h-2.523zm11.168-18.93c-.942-1.195-2.21-1.792-3.801-1.792-.965 0-1.901.258-2.81.775-.907.517-1.586 1.142-2.035 1.878v7.51c.448.758 1.128 1.396 2.035 1.912.909.517 1.845.775 2.81.775 1.592 0 2.859-.603 3.801-1.809.942-1.206 1.413-2.75 1.413-4.634 0-1.882-.471-3.421-1.413-4.616zm26.206 12.74h-3.466a66.557 66.557 0 01-2.456-2.354c-1.883 1.86-4.048 2.792-6.492 2.792-2.019 0-3.684-.546-4.996-1.637-1.312-1.09-1.968-2.637-1.968-4.639 0-1.597.438-2.9 1.313-3.914.874-1.011 2.085-1.945 3.633-2.8-1.144-1.957-1.716-3.633-1.716-5.027 0-.99.247-1.883.74-2.682a5.116 5.116 0 012.036-1.873c.863-.45 1.821-.674 2.876-.674 1.48 0 2.697.393 3.65 1.18.953.786 1.43 1.863 1.43 3.233 0 1.056-.258 1.96-.774 2.712a6.852 6.852 0 01-1.9 1.87c-.752.494-1.767 1.078-3.045 1.752.583.832 1.446 1.898 2.59 3.2l2.658 2.999a21.486 21.486 0 002.422-5.12l2.153.943c-1.032 2.47-2.041 4.401-3.028 5.794.987 1.057 2.433 2.471 4.34 4.245zm-7.435-3.933c-1.637-1.639-2.68-2.728-3.128-3.266-1.122-1.323-2.042-2.511-2.759-3.566-1.054.651-1.873 1.352-2.456 2.103-.583.75-.875 1.665-.875 2.742 0 1.262.443 2.256 1.33 2.982.885.725 1.945 1.089 3.178 1.089 1.66 0 3.23-.695 4.71-2.084zm-4.777-9.792c1.48-.74 2.59-1.44 3.33-2.103.74-.661 1.11-1.47 1.11-2.43 0-.724-.246-1.282-.739-1.674-.493-.392-1.122-.589-1.884-.589-.897 0-1.648.277-2.254.83-.605.553-.908 1.252-.908 2.097 0 1.01.448 2.3 1.345 3.869zm23.719 5.686h-3.5v8.04h-4.776V31.985h10.496c1.525 0 2.86.309 4.003.925 1.144.617 2.019 1.475 2.624 2.573.606 1.1.908 2.344.908 3.735 0 1.839-.477 3.33-1.43 4.474-.953 1.144-2.114 1.872-3.482 2.186l5.047 8.545h-5.484l-4.406-8.04zm3.92-9.63c-.64-.621-1.442-.933-2.406-.933h-5.013v6.729h5.013c.964 0 1.766-.311 2.405-.933.64-.621.96-1.432.96-2.432-.001-1-.32-1.81-.96-2.431zM207.431 42a8.146 8.146 0 012.994-3.083c1.278-.765 2.725-1.147 4.34-1.147 1.592 0 3.004.376 4.238 1.127 1.234.752 2.192 1.806 2.877 3.163.684 1.357 1.026 2.91 1.026 4.659v.941H210.83c.135 1.173.617 2.15 1.446 2.932.83.782 1.907 1.173 3.23 1.173.785 0 1.575-.146 2.372-.438.795-.291 1.452-.684 1.968-1.177l1.883 2.656c-.807.675-1.8 1.186-2.977 1.532a13.074 13.074 0 01-3.717.522c-1.638 0-3.117-.354-4.44-1.062a7.766 7.766 0 01-3.112-3c-.752-1.292-1.127-2.791-1.127-4.5 0-1.572.358-3.006 1.076-4.298zm4.508-.01c-.673.75-1.057 1.607-1.152 2.575h7.981c-.067-.944-.432-1.798-1.093-2.559-.662-.76-1.631-1.14-2.91-1.14-1.211 0-2.153.374-2.826 1.123zm23.817 10.75c-.56.652-1.295 1.167-2.203 1.548a7.53 7.53 0 01-2.944.573c-.92 0-1.811-.203-2.674-.608a5.254 5.254 0 01-2.137-1.84c-.56-.82-.84-1.805-.84-2.953 0-1.192.28-2.175.84-2.953a4.96 4.96 0 012.12-1.703c.851-.36 1.749-.54 2.69-.54 1.1 0 2.098.167 2.995.504.896.336 1.614.83 2.153 1.48v-2.29c0-.941-.326-1.692-.976-2.252-.651-.56-1.514-.84-2.59-.84-1.773 0-3.353.639-4.744 1.917l-1.615-2.75a10.105 10.105 0 013.28-1.697 12.883 12.883 0 013.818-.565c2.086 0 3.79.482 5.114 1.446 1.323.965 1.985 2.535 1.985 4.71v10.496h-4.273V52.74h.001zm0-4.097c-.336-.407-.813-.723-1.43-.948a5.817 5.817 0 00-2.002-.337c-.874 0-1.604.205-2.186.613-.583.408-.875.949-.875 1.622 0 .674.292 1.203.875 1.591.582.388 1.312.581 2.186.581a5.82 5.82 0 002.002-.336c.617-.224 1.093-.541 1.43-.949v-1.837zm19.68 3.727a7.118 7.118 0 01-2.27 1.834 5.992 5.992 0 01-2.742.656c-1.369 0-2.602-.339-3.7-1.013-1.1-.674-1.957-1.65-2.574-2.932-.617-1.28-.925-2.808-.925-4.585 0-1.73.308-3.24.925-4.533.617-1.292 1.469-2.286 2.557-2.982 1.087-.697 2.326-1.046 3.717-1.046.964 0 1.884.214 2.758.64a6.375 6.375 0 012.254 1.85v-8.275h4.306v22.438h-4.306V52.37zm0-9.27c-.382-.6-.914-1.096-1.598-1.484-.684-.389-1.385-.583-2.102-.583-1.211 0-2.199.489-2.96 1.466-.764.978-1.145 2.256-1.145 3.835 0 1.553.381 2.82 1.144 3.797.762.977 1.75 1.466 2.96 1.466.718 0 1.419-.194 2.103-.583.684-.388 1.216-.883 1.598-1.485v-6.428zm9.992-3.715h-.942V33.06h-2.086v-1.076h5.114v1.076h-2.086v6.325zm9.554-6.123l-2.523 6.123h-.27l-2.522-6.123v6.123h-.942v-7.401h1.447l2.153 5.382 2.153-5.382h1.447v7.4h-.942v-6.122h-.001zM30.425 41.369a3.92 3.92 0 013.914 3.924 3.92 3.92 0 01-3.914 3.926 3.92 3.92 0 01-3.916-3.926 3.92 3.92 0 013.916-3.924zm39.338-7.581c-4.232-13.357-15.228-23.951-28.7-27.65L42.728.056c15.506 4.256 28.163 16.452 33.03 31.823l-5.997 1.909h.002z"/><path fill="#2047DB" d="M59.476 36.504c-3.034-9.805-11.067-17.538-20.96-20.182l1.62-6.098c11.966 3.192 21.679 12.545 25.348 24.407l-6.008 1.863v.01z"/><path fill="#2047DB" d="M60.197 40.164l-.005-.004-3.932.992c-1.776-11.101-10.545-19.895-21.625-21.709l.98-3.912a31.333 31.333 0 00-5.216-.435c-1.738 0-3.453.149-5.117.435v.012l.981 3.913C15.144 21.243 6.361 30.037 4.563 41.15l-3.876-.97a30.607 30.607 0 00-.447 5.23c0 1.751.149 3.465.434 5.142l.006.005 3.885-.977c1.801 11.118 10.583 19.912 21.68 21.7l-.98 3.913c1.676.29 3.453.443 5.216.443 1.752 0 3.462-.149 5.13-.435v-.003l-.98-3.925C45.71 69.448 54.475 60.66 56.267 49.557l3.93.985c.298-1.69.447-3.466.447-5.23 0-1.75-.15-3.465-.435-5.139l-.013-.009zM32.383 62.276l-1.954-7.82-1.955 7.824c-7.825-.886-14.06-7.123-14.967-14.967l7.838-1.966-7.838-1.974c.906-7.847 7.142-14.083 14.98-14.977l1.962 7.838 1.963-7.838c7.813.907 14.023 7.143 14.917 14.977l-7.788 1.95 7.788 1.949c-.907 7.838-7.117 14.073-14.93 14.98l-.016.024z"/></g></svg>
